X: 41671
T: Upperchurch, The
R: polka
M: 2/4
K: Amajor
|:AE AB|c2 c>B|AE AB|c2 cd/e/|
fe cA|B2 Bd/e/|fe cB|AB cB:|
|:~a3 e|~g3 e|~f2 af|e2 ec/e/|
fe cA|B2 Bd/e/|fe cB|AB ce:|

